X:1
T: Admiral Nelson
C:Niel Gow
R:Reel
I:speed 232
Q:232
K:F
M:4/4
L:1/8
|:c2|A2F2 FA GF|EG B2 Bd cB|Ac de fa gf|e2 c2 cd cB|
A2F2 FA GF|EG B2 Bd cB|Ac df ec dB|A2 F2 F2 ((3cde)|
fc Ac fa gf|ge ce gb ag|af ge fd gf|e2 c2 c2 fe|
dc BA B2 gf|ed cB A2((3cde)|fc dB cA BG|A2F2 F2:|
